X: 31006
T: Pachelbel's Frolics
R: reel
M: 4/4
K: Dmajor
A/B/c|:"D"d3c defg|"A"a^gab afed|"Bm"BABc dcdB|"F#m"ABAG FDEF|
"G"GFGA BABc|"D"dcde fdef|"G"gfed cdef|1 "A"gece d2A/B/c:|2 "A"gece cd-de||
|:"D"fdad fdad|"A"ecac ecac|"Bm"dBfB dBfB|"F#m"ABAG FDEF|"G"GFGA BABc|
"D"dcde fdef|"G"gfed cdef|1 "A"gece cd-de:|2 "A"gece d2A/B/c||

